src/pos-icons/format-text-variant.svg

<svg height="24" viewBox="0 0 24 24" width="24" xmlns="http://www.w3.org/2000/svg"><path d="m9.6 14 2.4-6.3 2.4 6.3m-3.4-9-5.5 14h2.2l1.1-3h6.2l1.1 3h2.2l-5.3-14z"/></svg>

<?xml version="1.0" encoding="UTF-8"?><!DOCTYPE svg PUBLIC "-//W3C//DTD SVG 1.1//EN" "http://www.w3.org/Graphics/SVG/1.1/DTD/svg11.dtd"><svg xmlns="http://www.w3.org/2000/svg" xmlns:xlink="http://www.w3.org/1999/xlink" version="1.1" id="mdi-format-text-variant" width="24" height="24" viewBox="0 0 24 24"><path d="M9.6,14L12,7.7L14.4,14M11,5L5.5,19H7.7L8.8,16H15L16.1,19H18.3L13,5H11Z" /></svg>
